app/images/logo.svg

<svg width="38" height="53" viewBox="0 0 38 53" fill="none" xmlns="http://www.w3.org/2000/svg">
<path d="M0 48.1918H38V53H0V48.1918Z" fill="white"/>
<path d="M0 43.3835H38V48.1918H0V43.3835Z" fill="white"/>
<path fill-rule="evenodd" clip-rule="evenodd" d="M25.2403 13.0549H12.7595C12.4378 32.5499 9.4654 47.8221 5.8461 47.8221C5.72534 47.8221 5.60527 47.8051 5.48602 47.7715L5.48071 47.8221H5.8461H32.1538H32.5192L32.5139 47.7715C32.3946 47.8051 32.2746 47.8221 32.1538 47.8221C28.5345 47.8221 25.5621 32.5499 25.2403 13.0549Z" fill="white"/>
<path d="M31.8462 12.5753C31.8462 19.5205 26.2842 25.1507 19.4231 25.1507C12.562 25.1507 7 19.5205 7 12.5753C7 5.63017 12.562 0 19.4231 0C26.2842 0 31.8462 5.63017 31.8462 12.5753Z" fill="white"/>
</svg>

<svg width="38" height="53" fill="none" xmlns="http://www.w3.org/2000/svg"><path d="M0 48.192h38V53H0v-4.808zm0-4.809h38v4.809H0v-4.809z" fill="#fff"/><path fill-rule="evenodd" clip-rule="evenodd" d="M25.24 13.055H12.76c-.322 19.495-3.295 34.767-6.914 34.767-.12 0-.24-.017-.36-.05l-.005.05h27.038l-.005-.05c-.12.033-.24.05-.36.05-3.62 0-6.592-15.272-6.914-34.767z" fill="#fff"/><path d="M31.846 12.575c0 6.945-5.562 12.576-12.423 12.576S7 19.52 7 12.575 12.562 0 19.423 0s12.423 5.63 12.423 12.575z" fill="#fff"/></svg>
